X:1
T:Title
%%score { 1 | 2 }
L:1/8
M:4/4
K:C
V:1 treble nm="Grand Piano"
V:2 bass 
V:1
 z4 z2[Q:1/4=94] [EG]2 | [Ec]2 [CE]>[DF] [_EA]2 [=EG]>[_E^F] | [EG]6 E2 | %3
 F2 [FB]>[FA] [EG]2 [FA]>[DF] |[M:3/4] [CE]6 |[M:1/4] [EG]2 |[M:4/4] [Ge]2 [Fd]>[Ec] E2 F>G | %7
 A6 A2 | [Af]2 [Ge]>[DFd] [B,G]2 [C^FA]>[B,=FG] |[M:3/4] [CEc]6 |] %10
V:2
 z4 z2 [C,C]2 | [C,G,]2 [C,G,]>[C,G,] [C,^F,]2 [C,G,]>[C,A,] | [C,G,]6 [C,C]2 | %3
 [G,D]2 [G,,G,]>[G,,G,] [G,,G,]2 [G,,G,]>[B,,G,] |[M:3/4] [C,G,]6 |[M:1/4] [C,C]2 | %6
[M:4/4] [C,C]2 [C,G,]>[C,G,] [C,G,C]2 [D,G,B,]>[E,G,C] | [F,C]6 [F,CF]2 | %8
 [D,D]2 [E,^C]>F, G,2 D,>G, |[M:3/4] C,6 |] %10

